X: 3
T: The Spike Island Lasses
R: reel
M: 4/4
L: 1/8
K: Dmix
||:cAGB ADDE|(3FED AD FGAB|cAGB AGFG|A^cde fded|
|cAGB ADDE|EDAD FGAB|cAGB AGFG|Add^c ddde|
|ffdf ed^ce|dfed ^ceA2|fedf ed^ce|Add^c dd^cd|
|eaag ef (3gfe|dfed cAGc|Add^c dedc|Acde fdd2|
|cAGB LAGAc|LBABG AGAB|cAGB AGFG|Adde fded|
|cAGB LA3d|BGGF GFGB|cAGB AGFG|Add^c d2de|
|ffad ffad|ffaf geee|f3(f f)ede|(3fga ge d^cA^c|
|defg afab|agfa gfge|ffdf ed^ce|dd^ce eded:||


Tune 737	Setting 26651

